icons/user-add-line.svg

<svg xmlns="http://www.w3.org/2000/svg" width="24" height="24" fill="none"><g clip-path="url(#a)"><g><path fill="#121212" d="M14 14.252V16.342C13.0949 16.022 12.1263 15.9239 11.1754 16.0558C10.2245 16.1877 9.3192 16.5459 8.53543 17.1002C7.75166 17.6545 7.11234 18.3888 6.67116 19.2414C6.22998 20.094 5.99982 21.04 6 22L4 21.999C3.99969 20.7779 4.27892 19.5729 4.8163 18.4764C5.35368 17.3799 6.13494 16.4209 7.10022 15.673C8.0655 14.9251 9.18918 14.4081 10.3852 14.1616C11.5811 13.9152 12.8177 13.9457 14 14.251V14.252ZM12 13C8.685 13 6 10.315 6 7C6 3.685 8.685 1 12 1C15.315 1 18 3.685 18 7C18 10.315 15.315 13 12 13ZM12 11C14.21 11 16 9.21 16 7C16 4.79 14.21 3 12 3C9.79 3 8 4.79 8 7C8 9.21 9.79 11 12 11ZM18 17V14H20V17H23V19H20V22H18V19H15V17H18Z"/></g></g><defs><clipPath id="a"><rect width="24" height="24" fill="white"/></clipPath></defs></svg>

<svg width="24" height="24" fill="none" xmlns="http://www.w3.org/2000/svg"><g clip-path="url(#a)"><path d="M14 14.252v2.09A6 6 0 0 0 6 22l-2-.001a8 8 0 0 1 10-7.748v.001ZM12 13c-3.315 0-6-2.685-6-6s2.685-6 6-6 6 2.685 6 6-2.685 6-6 6Zm0-2c2.21 0 4-1.79 4-4s-1.79-4-4-4-4 1.79-4 4 1.79 4 4 4Zm6 6v-3h2v3h3v2h-3v3h-2v-3h-3v-2h3Z" /></g><defs><clipPath id="a"><path fill="#fff" d="M0 0h24v24H0z"/></clipPath></defs></svg>
